icons/pie-chart-2-line.svg

<svg viewBox="0 0 24 24" fill="currentColor" xmlns="http://www.w3.org/2000/svg"><path d="M12 0.5C18.3513 0.5 23.5 5.64873 23.5 12C23.5 12.3369 23.4855 12.6704 23.4571 13H21.9506C21.4489 18.0533 17.1853 22 12 22C6.47715 22 2 17.5228 2 12C2 6.81465 5.94668 2.5511 11 2.04938V0.542876C11.3296 0.514488 11.6631 0.5 12 0.5ZM11 4.06189C7.05369 4.55399 4 7.92038 4 12C4 16.4183 7.58172 20 12 20C16.0796 20 19.446 16.9463 19.9381 13H11V4.06189ZM13 2.552V11H21.448C20.9827 6.55197 17.448 3.01732 13 2.552Z"/></svg>

<svg xmlns="http://www.w3.org/2000/svg" viewBox="0 0 24 24">
    <g>
        <path fill="none" d="M0 0h24v24H0z"/>
        <path d="M11 .543c.33-.029.663-.043 1-.043C18.351.5 23.5 5.649 23.5 12c0 .337-.014.67-.043 1h-1.506c-.502 5.053-4.766 9-9.951 9-5.523 0-10-4.477-10-10 0-5.185 3.947-9.449 9-9.95V.542zM11 13V4.062A8.001 8.001 0 0 0 12 20a8.001 8.001 0 0 0 7.938-7H11zm10.448-2A9.503 9.503 0 0 0 13 2.552V11h8.448z"/>
    </g>
</svg>
